!!!OTL: 1
**kern	**text	**kern	**text
*part6	*part6	*part5	*part5
*staff6	*staff5	*staff5	*staff5
*I"BASSUS	*	*I"BASSUS	*
*I'B	*	*I'B	*
*clefF4	*	*clefF4	*
*k[]	*	*k[]	*
*My2/2y	*	*Myy2/2y	*
*met(c|)	*	*met(c|)	*
=1	=1	=1	=1
1A	Ag-	1A	Ag-
=2	=2	=2	=2
2G	-nus	2G	-nus
2F	De-	2F	De-
=3	=3	=3	=3
1E	-i,	1E	-i,
=4	=4	=4	=4
1r	.	1r	.
=5	=5	=5	=5
4r	.	4r	.
4E	Ag-	4E	Ag-
4F	-nus	4F	-nus
4D	De-	4D	De-
=6	=6	=6	=6
2A	.	2A	.
4G	.	4G	.
4A	.	4A	.
=7	=7	=7	=7
2E	.	2E	.
4AA	-i,	4AA	-i,
4D	Ag-	4D	Ag-
!!pagebreak:original
=8	=8	=8	=8
4C	-nus	4C	-nus
2D	De-	2D	De-
8CL	.	8CL	.
8BBJ	.	8BBJ	.
=9	=9	=9	=9
2AA	.	2AA	.
[2D	-i,	[2D	-i,
=10	=10	=10	=10
1D]	.	1D]	.
=11	=11	=11	=11
4r	.	4r	.
4AA	Ag-	4AA	Ag-
8AAL	-nus	8AAL	-nus
8BB	.	8BB	.
8C	.	8C	.
8DJ	.	8DJ	.
=12	=12	=12	=12
4E	.	4E	.
4F	.	4F	.
2E	De-	2E	De-
=13	=13	=13	=13
1AA	-i,	1AA	-i,
=14	=14	=14	=14
1r	.	1r	.
!!linebreak:original
=15	=15	=15	=15
2r	.	2r	.
2C	qui	2C	qui
=16	=16	=16	=16
4C	tol-	4C	tol-
4C	-lis	4C	-lis
4G	pec-	4G	pec-
4G	-ca-	4G	-ca-
=17	=17	=17	=17
4F	-ta	4F	-ta
2F	mun-	2F	mun-
4D	.	4D	.
=18	=18	=18	=18
4E	.	4E	.
4C	.	4C	.
4D	.	4D	.
4E	.	4E	.
=19	=19	=19	=19
2AA	-di,	2AA	-di,
2r	.	2r	.
=20	=20	=20	=20
2C	do-	2C	do-
4C	-na	4C	-na
4C	no-	4C	no-
=21	=21	=21	=21
2D	-bis	2D	-bis
*lig	*	*lig	*
2AA@	pa-	[2AA@	pa-
!!pagebreak:original
=22	=22	=22	=22
2E@	.	2AA]@	.
*Xlig	*	*	*
2AA@	-cem,	[2E@	.
=23	=23	=23	=23
2r@	.	2E]@	.
*	*	*Xlig	*
4r@	.	2AA@	cem
4A@	do-	.	.
=24	=24	=24	=24
4G#i@	-na	1r@	.
4.A@	no-	.	.
8Gni@	.	.	.
4F@	.	.	.
=25	=25	=25	=25
4E@	.	4r@	.
4C@	-bis	4A@	do-
2E@	pa-	4G#Xi@	-na
.	.	[4A@	no-
=26	=26	=26	=26
1AA@	.	8AL]@	.
.	.	8GJ@	.
.	.	4F@	.
.	.	4E@	.
.	.	4C@	-bis
=27	=27	=27	=27
2E@	.	4D@	pa-
.	.	4E@	.
2AA@	-cem,	2AA@	.
=28	=28	=28	=28
1r@	.	2E@	-cem
.	.	2r@	.
!!pagebreak:original
=29	=29	=29	=29
2r	.	2r	.
4r	.	4r	.
4A	do-	4A	do-
=30	=30	=30	=30
4G#Xi	-na	4G#X	-na
4.A	no-	4.A	no-
8Gni	.	8Gn	.
4F	.	4F	.
=31	=31	=31	=31
4E	.	4E	.
4C	-bis	4C	-bis
4D	pa-	4D	pa-
4E	.	4E	.
=32	=32	=32	=32
2AA	-cem,	2AA	-cem
2r	.	2r	.
=33	=33	=33	=33
2AA	do-	2AA	do-
4E	.	4E	.
4AA	-na	4AA	-na
=34	=34	=34	=34
2E	no-	2E	no-
4C	.	4C	.
4F	-bis	4F	-bis
=35	=35	=35	=35
2E	pa-	2E	pa-
4AA	-cem,	4AA	-cem,
4AA	do-	4AA	do-
!!linebreak:original
=36	=36	=36	=36
4D	-na	4D	-na
4AA	no-	4AA	no-
2C	-bis	2C	-bis
=37	=37	=37	=37
2D	pa-	2D	pa-
[2AA;	-cem.	[2AA	-cem.
=38	=38	=38	=38
1AA]	.	1AA]	.
==	==	==	==
*-	*-	*-	*-
!!!system-decoration: [(s1,s2,s3,s4,{s5,s6})]
!!!RDF**kern: @ = marked note
